Papirus-Adapta/24x24/actions/escape-direction-vertical.svg

<svg xmlns="http://www.w3.org/2000/svg" width="24" height="24" viewBox="0 0 24 24">
 <defs>
  <style id="current-color-scheme" type="text/css">
   .ColorScheme-Text { color:#414c52; } .ColorScheme-Highlight { color:#00bcd4; }
  </style>
 </defs>
 <path style="fill:currentColor" class="ColorScheme-Text" d="m1 1v14h14v-14h-14zm2 2h4v3.2773c-0.293 0.1705-0.5368 0.4087-0.7109 0.6993-0.0093 0.0152-0.0166 0.0313-0.0254 0.0468-0.0673 0.1194-0.1222 0.246-0.1641 0.3789-0.0122 0.0383-0.0233 0.076-0.0332 0.1153-0.0388 0.1555-0.0664 0.3149-0.0664 0.4824s0.0276 0.3269 0.0664 0.4824c0.0099 0.0393 0.021 0.077 0.0332 0.1153 0.0419 0.1329 0.0968 0.2595 0.1641 0.3789 0.0088 0.0155 0.0161 0.0316 0.0254 0.0468 0.1741 0.2906 0.4179 0.5288 0.7109 0.6993v3.2773h-4v-10zm6 0h4v10h-4v-3.2773c0.293-0.1705 0.5368-0.4087 0.7109-0.6993 0.0093-0.0152 0.0166-0.0313 0.0254-0.0468 0.0673-0.1194 0.1222-0.246 0.1641-0.3789 0.0122-0.0383 0.0233-0.076 0.0332-0.1153 0.0388-0.1555 0.0664-0.3149 0.0664-0.4824s-0.0276-0.3269-0.0664-0.4824c-0.0099-0.0393-0.021-0.077-0.0332-0.1153-0.0419-0.1329-0.0968-0.2595-0.1641-0.3789-0.0088-0.0155-0.0161-0.0316-0.0254-0.0468-0.1741-0.2906-0.4179-0.5288-0.7109-0.6993v-3.2773z" transform="translate(4 4)"/>
</svg>

<svg xmlns="http://www.w3.org/2000/svg" width="24" height="24" version="1.1">
 <defs>
  <style id="current-color-scheme" type="text/css">
   .ColorScheme-Text { color:#444444; } .ColorScheme-Highlight { color:#4285f4; } .ColorScheme-NeutralText { color:#ff9800; } .ColorScheme-PositiveText { color:#4caf50; } .ColorScheme-NegativeText { color:#f44336; }
  </style>
 </defs>
 <g transform="translate(4,4)">
  <path style="fill:currentColor" class="ColorScheme-Text" d="M 1,1 V 15 H 15 V 1 Z M 3,3 H 7 V 13 H 3 Z M 9,3 H 13 V 13 H 9 Z"/>
  <path style="fill:currentColor" class="ColorScheme-Text" d="M 10,8 A 2,2 0 0 1 8,10 2,2 0 0 1 6,8 2,2 0 0 1 8,6 2,2 0 0 1 10,8 Z"/>
 </g>
</svg>
